X:1
T:Venite ad me omnes- Schütz
T:#
%%score 1 2 3 4
L:1/8
Q:1/4=100
M:2/2
K:F
V:1 treble nm="Violin I" snm="Vn I"
V:2 treble nm="Violin II" snm="Vn II"
V:3 treble nm="Tenor" snm="T"
V:4 bass nm="Continuo"
V:1
"^Venite ad me omnes qui laboratis, SWV 261""^Matthew 11:28-30""^Heinrich Schütz\n (1585-1672)""^Sinfonia" B3 d GBGA | %1
 B2 GA B2 GA | BGcA BGcA | B2 A2 G2 A2 | B2 c2 d2 e2 | f3 a dfde | f2 de f2 de |[M:2/2] fdge fdge | %8
 f2 e2 d2 e2 | fdge a2 g2- | g2 f2 e4 | d4 z2 d2 | A3 A A2 A2 | B8 | B4 z2 f2 | c3 c c2 c2 | d8 | %17
 d6 A2 || A8 | !fermata!G8 || z8 | z8 | z8 | z8 | z8 | z8 |[M:2/2] z8 | z8 | z8 | z8 | z8 | z8 | %32
 z8 | z8 | z8 |[M:2/2] z8 | z8 | z2 A2 B2 BA | B2 BG A2 AB | G2 z A B2 Bc | d2 dB c2 cd | B8 | %42
 z4 d4 | c4 B4 | A8 | !fermata!=B8 ||[M:3/2]"^Sinfonia"[Q:1/4=200] z12 | G6 A2 B4 | B6 c2 d4 | %49
 d6 e2 f4 | f6 g2 a4 | g8 e4 |[M:3/2][Q:1/4=200][Q:1/4=200][Q:1/4=200][Q:1/4=200] f8 d4 | _e8 c4 | %54
 d8 B4 | c8 A4 | B4 A8 | G8 z4 | z12 | z12 | z12 | z12 | z12 | z12 | z12 | z12 | B6 c2 d4 | %67
 d6 e2 f4 | z12 | z12 | z12 | c6 d2 e4 | e6 f2 g4 | z12 | z12 | G6 A2 B4 | B6 c2 d4 | d6 d2 G4 | %78
 g6 g2 g4 | z12 | z12 | f6 e2 d4 | _e6 d2 c4 | d8 B4 | c8 A4 | B4 A8 ||[M:2/2][Q:1/4=100] G4 g4 | %87
[M:2/2][Q:1/4=100][Q:1/4=100][Q:1/4=100][Q:1/4=100] f6 f2 | e4 e4 | !fermata!d8 | z8 | z8 | z8 | %93
 z8 | z8 | z8 | z8 | z8 | z8 | z8 | z8 | z8 |[M:2/2] z8 | z8 | z8 | z8 | z8 | z8 | z8 | z8 | z8 | %111
[M:2/2] z8 | z8 | z8 | z8 | z8 | z8 | z8 | z8 |[M:2/2] d6 d2 | d3 e f4 | f4 z2 c2 | f2 g4 _e2 | %123
 =B2 c4 B2 | c4 z2 A2 | =B2 ^c2 d3 c/d/ | e2 f4 e2 | d8 | z8 | z4 z2 a2 | b3 g a2 ^f2 | %131
 de/=f/ e^f/g/ fg/a/ ga/b/ | a2 A2 B3 G | A2 F2 FG/A/ GA/B/ | AB/c/ Bc/d/ c3 d/_e/ | d4 z4 | %136
 z2 A4 A2 | A3 B A4 | A4 z2 G2 | c2 d4 B2 | ^F2 G4 F2 | G4 z2 d2 | c2 d2 B2 c2 | A2 B4 A2 | B4 z4 | %145
 z8 | z4 z2 d2 | _e3 c d2 =B2 | GA/_B/ A=B/c/ B2 z2 | z2 c2 d3 _B | c2 A2 FG/A/ GA/B/ | A2 z2 z4 | %152
 de/f/ ef/g/ f2 z2 | e^f/g/ fg/a/ g2 z2 | ^fg/a/ ^ga/=b/ a2 z2 | z8 | z8 | z2 a2 b3 g | %158
 a2 d2 e^f/g/ fg/a/ | g4 z4 ||"^Sinfonia" B3 d GBGA | B2 GA B2 GA | BGcA BGcA | B2 A2 G2 A2 | %164
 B2 c2 d2 e2 | f3 a dfde | f2 de f2 de | fdge fdge | f2 e2 d2 e2 | fdge a2 g2- | g2 f2 e4 | %171
 d4 z2 d2 | A3 A A2 A2 | B8 | B4 z2 f2 | c3 c c2 c2 | d8 | d6 A2 | A8 | !fermata!G8 ||[M:2/2] z8 | %181
 z8 | z8 | z8 | z8 | z8 | z8 | z8 |[M:2/2] z8 | z8 | z8 | z8 | z8 | z8 | z8 | z8 |[M:2/2] z8 | %197
 z2 A2 B3 A | B2 BG A2 AB | G2 z A B3 c | d2 dB c2 cd | B8 | z4 d4 | c4 B4 | A8 | !fermata!=B8 |] %206
V:2
 z8 | G3 B DGE^F | G2 E^F G2 EF | GEA^F GEAF | G2 A2 B2 c2 | d3 f Ad=B^c | d4- dA=B^c | %7
[M:2/2] d2 =B^c d2 Bc | d=Be^c dBec | d2 =c_B Ac=Bd | ^c2 d4 c2 | d4 z2 f2 | =c3 c c2 c2 | d8 | %14
 d4 z2 d2 | A3 A A2 A2 | B4 B4- | B2 G2 G4- || G4 ^F4 | !fermata!G8 || z8 | z8 | z8 | z8 | z8 | %25
 z8 |[M:2/2] z8 | z8 | z8 | z8 | z8 | z8 | z8 | z8 | z8 |[M:2/2] z8 | z8 | z2 ^F2 G2 GF | %38
 G2 GG G2 G^F | G2 z ^F G2 GA | B2 BB B2 BA | B4 d4 | c4 B4 | A2 G2 G4- | G4 ^F4 | !fermata!G8 || %46
[M:3/2] G6 A2 B4 | B6 c2 d4 | d6 e2 f4 | f6 g2 a4 | a6 g2 f4 | d8 ^c4 |[M:3/2] d8 =B4 | c8 A4 | %54
 _B8 G4 | E8 ^F4 | G4 ^F8 | G8 z4 | z12 | z12 | z12 | z12 | z12 | z12 | z12 | z12 | z12 | %67
 B6 c2 d4 | d6 e2 f4 | z12 | z12 | z12 | c6 d2 e4 | e6 f2 g4 | z12 | z12 | G6 A2 B4 | B6 c2 d4 | %78
 d6 c2 B4 | z12 | z12 | A6 A2 B4 | G6 G2 A4 | F8 G4 | E8 A4 | G4 ^F8 ||[M:2/2] G4 B4 | %87
[M:2/2] A6 d2 | d4 ^c4 | !fermata!d8 | z8 | z8 | z8 | z8 | z8 | z8 | z8 | z8 | z8 | z8 | z8 | z8 | %102
[M:2/2] z8 | z8 | z8 | z8 | z8 | z8 | z8 | z8 | z8 |[M:2/2] z8 | z8 | z8 | z8 | z8 | z8 | z8 | z8 | %119
[M:2/2] =B6 B2 | =B3 c d4 | d4 z2 G2 | A2 =B2 c3 B/c/ | d2 _e4 d2 | c4 z2 d2 | g2 a4 f2 | %126
 ^c2 d4 c2 | d4 z2 a2 | b3 g a2 d2 | de/f/ e^f/g/ f2 z2 | z4 z2 a2 | b3 g a2 d2 | %132
 e^f/g/ fg/a/ g2 z2 | z2 c2 d3 B | c2 F2 GA/B/ AB/c/ | B4 z4 | z2 ^F4 F2 | ^F3 G F4 | ^F4 z2 D2 | %139
 E2 ^F2 G3 F/G/ | A2 B4 A2 | G4 z4 | z2 A2 d2 _e2 | c2 d4 c2 | B4 z2 d2 | _e3 c d2 =B2 | %146
 GA/B/ A=B/c/ B2 z2 | z4 z2 d2 | _e3 c d2 B2 | GA/B/ AB/c/ B2 z2 | z8 | z8 | Bc/d/ GA/B/ A2 z2 | %153
 cd/e/ A=B/c/ B2 z2 | dd/c/ =B^c/d/ c2 z2 | z8 | z2 a2 b3 g | a2 ^f2 de/=f/ e^f/g/ | %158
 ^fg/a/ ga/b/ a3 =b/c'/ | =b4 z4 || z8 | G3 B DGE^F | G2 E^F G2 EF | GEA^F GEAF | G2 A2 B2 c2 | %165
 d3 f Ad=B^c | d4- dA=B^c | d2 =B^c d2 Bc | d=Be^c dBec | d2 =c_B Ac=Bd | ^c2 d4 c2 | d4 z2 f2 | %172
 =c3 c c2 c2 | d8 | d4 z2 d2 | A3 A A2 A2 | B4 B4- | B2 G2 G4- | G4 ^F4 | !fermata!G8 || %180
[M:2/2] z8 | z8 | z8 | z8 | z8 | z8 | z8 | z8 |[M:2/2] z8 | z8 | z8 | z8 | z8 | z8 | z8 | z8 | %196
[M:2/2] z8 | z2 ^F2 G3 F | G2 GG G2 G^F | G2 z ^F G3 A | B2 BB B2 BA | B4 d4 | c4 B4 | A2 G2 G4- | %204
 G4 ^F4 | !fermata!G8 |] %206
V:3
[K:C] z8 | z8 | z8 | z8 | z8 | z8 | z8 |[M:2/2] z8 | z8 | z8 | z8 | z8 | z8 | z8 | z8 | z8 | z8 | %17
w: |||||||||||||||||
 z8 ||[K:F][M:2/2][K:treble-8] z8 | z8 || z2 G2 B2 BA | B2 BG B2 BA | B2 z G d2 dc | d2 dB d2 dc | %24
w: |||Ve- ni- te, ve-|ni- te, ve- ni- te ad|me, ve- ni- te, ve-|ni- te, ve- ni- te ad|
 d4 z4 | c8 | G3 G G2 F2 | A8 | A4 z4 | c8 | G3 G G2 F2 | A8- | A2 E2 E4 | D2 ^F2 A2 AG | %34
w: me|o-|mnes qui la- bo-|ra-|tis,|o-|mnes qui o- ne-|ra\-|* ti e-|stis, ve- ni- te, ve-|
 A2 A^F A2 AG | A2 z A d2 d^c | d2 dA d2 d^c | d2 z D G2 GD | G2 G_E C2 DD | G2 z D G2 GF | %40
w: ni- te, ve- ni- te ad|me, ve- ni- te, ve-|ni- te, ve- ni- te ad|me, ve- ni- te, ve-|ni- te, ve- ni- te ad|me, ve- ni- te, ve-|
 B2 BG _E2 FF | B4 G4 | A4 B2 B2 | c6 c2 | d8 | !fermata!G8 ||[M:3/2] z12 | z12 | z12 | z12 | z12 | %51
w: ni- te, ve- ni- te ad|me, et|e- go re-|fi- ci-|am|vos.||||||
 z12 |[M:3/2][K:treble-8] z12 | z12 | z12 | z12 | z12 | G6 A2 B4 | B6 c2 d4 | d6 e2 f4 | e6 f2 g4 | %61
w: ||||||Tol- li- te,|tol- li- te,|tol- li- te,|tol- li- te|
 f8 d4 | _e8 c4 | d8 B4 | c8 A4 | d4 c8 | B8 z4 | z12 | z12 | F6 G2 A4 | A6 B2 c4 | z12 | z12 | %73
w: ju- gum|me- um,|ju- gum|me- um|su- per|vos,|||tol- li- te,|tol- li- te,|||
 z12 | G6 A2 B4 | B6 c2 d4 | z12 | G6 A2 B4 | B6 c2 d4 | f6 e2 d4 | _e6 d2 c4 | d8 B4 | c8 A4 | %83
w: |tol- li- te,|tol- li- te,||tol- li- te,|tol- li- te,|tol- li- te,|tol- li- te|ju- gum|me- um,|
 B8 G4 | A8 F4 | G4 d8 ||[M:2/2] G4 G4 |[M:2/2][K:treble-8] d6 B2 | G4 A4 | !fermata!D8 | B8 | B8 | %92
w: ju- gum|me- um|su- per|vos, er|di- sci-|te a|me,|qui-|a,|
 z4 B4- | B4 A4 | c6 B2 | A8 | z4 G4 | F6 F>E | E8 | D8 | z4 d4 | B4 _e4- | e4 d4 | c8 | z4 F4 | %105
w: qui\-|* a|mi- tis|sum|et|hu- mi- lis|cor-|de,|qui-|a mi-|* tis|sum|et|
 G6 _E>D | D8 | C2 c3 GGA | B4 A4 | G6 G2 | F4 z2 FG | A2 c2 G4 | F8 | z2 G4 G2 | G3 ^F G4 | %115
w: hu- mi- lis|cor-|de, et in- ve- ni-|e- tis|re- qui-|em a- ni-|ma- bus ve-|stris,|ju- gum|e- nim me-|
 G4 z2 G2 | (c2 d4 B2 | ^F2 G4) F2 | G8 | z2 G4 G2 | G3 c B4 | B4 z2 _E2 | (D4 C4 | F4) G4 | %124
w: um su-|a\- * *|* * ve|est,|ju- gum|e- nim me-|um su-|a\- *|* ve|
 C4 z2 F2 | (E4 D4 | G4) A4 | D8 | z4 z2 A2 | B3 G A2 ^F2 | (DE/F/ E^F/G/) F2 z2 | z8 | z4 z2 B2 | %133
w: est, su-|a\- *|* ve|est|et|o- nus me- um|le\- * * * * * ve,||et|
 c3 A B4 | F2 (D_E/F/ EF/G/ F2) | B4 z4 | z2 d4 d2 | d3 G d4 | d4 z2 B2 | (A4 G4 | c4) d4 | %141
w: o- nus me-|um le\- * * * * * *|ve,|ju- gum|e- nim me-|um su-|a\- *|* ve|
 G4 z2 B2 | (F4 G4 | _E4 F4 | B8 | z4 z2 d2 | _e3 c d2 =B2 | (GA/_B/ A=B/c/) B2 z2 | z8 | z8 | %150
w: est, su-|a\- *|* ve|est|et|o- nus me- um|le\- * * * * * ve,|||
 z2 c2 d3 B | c2 A2 GA/B/ AB/c/) | B2 z2 (A=B/c/ Bc/d/) | c2 z2 (=B^c/d/ cd/e/ | d2) z2 z2 A2 | %155
w: et o- nus|me- um le\- * * * * *|ve, le\- * * * * *|ve, le\- * * * * *|ve et|
 B3 G A2 D2 | (E^F/G/ FG/A/) G2 z G | D2 D2 G4 | d2 (Bc/d/ cd/_e/ d2) | G4 z4 || z8 |[M:2/2] z8 | %162
w: o- nus me- um|le\- * * * * * ve, er|o- nus me-|um le\- * * * * * *|ve.|||
 z8 | z8 | z8 | z8 | z8 | z8 |[M:2/2] z8 | z8 | z8 | z8 | z8 | z8 | z8 | z8 | z8 | z8 | z8 | z8 || %180
w: ||||||||||||||||||
[M:2/2][K:treble-8] z2 G2 B3 A | B2 BG B2 BA | B2 z G d3 c | d2 dB d2 dc | d4 z4 | c8 | %186
w: Ve- ni- te|er- go, ve- ni- te ad|me, ve- ni- te|er- go, ve- ni- te ad|me,|o-|
 G3 G G2 F2 | A8 | A4 z4 | c8 | G3 G G2 F2 | A8- | A2 E2 E4 | D2 ^F2 A3 G | A2 A^F A2 AG | %195
w: mnes qui la- bo-|ra-|tis,|o-|mnes qui o- ne-|ra\-|* ti e-|stis, ve- ni- te|er- go, ve- ni- te ad|
 A2 z A d3 ^c | d2 dA d2 d^c | d2 z D G3 D | G2 G_E C2 DD | G2 z D G3 F | B2 BG _E2 FF | B4 G4 | %202
w: me, ve- ni- te|er- go, ve- ni- te ad|me, ve- ni- te|er- go, ve- ni- te ad|me, ve- ni- te|er- go, ve- ni- te ad|me, et|
 A4 B2 B2 | c6 c2 | d8 | !fermata!G8 |] %206
w: e- go re-|fi- ci-|am|vos.|
V:4
 G,8 | G,4 G,4 | G,8 | G,4 G,4 | G,4 F,2 E,2 | D,8 | D,4 D,4 |[M:2/2] D,8 | D,4 D,4 | %9
w: |||||||||
 D,2 E,2 F,2 G,2 | A,2 B,2 G,2 A,2 | D,4 B,,4 | F,6 F,,2 | B,,8 | B,,4 B,,4 | F,6 F,,2 | B,,8 | %17
w: ||||||||
 B,,4- B,,2 C,2 || D,4- D,4 | !fermata!G,,8 || G,,8 | G,,4 G,,4 | G,,8 | G,,4 G,,4 | G,,8 | C,8 | %26
w: * 6 *|4 3||||||||
 C,8 | F,,8 | F,,8 | C,8 | C,8 | ^C,4 D,2 G,,2 | A,,8 | D,8 | D,4 D,4 | D,8 | D,4 D,4 | %37
w: |||||6 * *||||||
 D,2 D,2 G,2 G,D, | G,2 G,_E, C,2 D,D, | G,3 D, G,2 G,F, | B,2 B,G, _E,2 F,F, | B,4 G,4 | A,4 B,4 | %43
w: |||||* 6|
 C4- C4 | D4- D4 | !fermata!G,8 ||[M:3/2] G,12 | G,,12 | B,,12 | D,12 | D,12 | G,8 A,4 | %52
w: 6 5|4 3||||||||
[M:3/2] D,8 G,4 | C,8 F,4 | B,,8 _E,4 | C,8 D,4 | G,,4 D,8 | G,,12 | G,12 | D,12 | C,8 _E,4 | %61
w: |||||||||
 D,8 G,4 | C,8 F,4 | B,,8 _E,4 | C,8 D,4 | B,,4 F,8 | B,,12 | B,,12 | B,,12 | F,,12 | F,,12 | %71
w: ||||||||||
 C,12 | C,12 | C,12 | G,,12 | G,,12 | G,,12 | G,,12 | G,12 | D,8 G,4 | C,8 F,4 | D,8 B,4 | C8 A,4 | %83
w: ||||||||||||
 B,8 G,4 | A,8 F,4 | G,4 D8 ||[M:2/2] G,4 G,4 |[M:2/2] D6 B,2 | G,4 A,4 | !fermata!D,8 | G,,8 | %91
w: ||||||||
 G,,8 | G,,8 | C,4- C,4 | C,8 | F,,8 | C,8 | D,4 G,,4 | A,,8 | D,,8 | D,8 | _E,4 C,4 | F,4- F,4 | %103
w: ||3 4|3||||||||3 4|
 F,4 F,4 | F,,8 | C,8 | G,,8 | C,8 | G,4 F,4 | _E,8 | B,,2 B,,C, D,2 F,2 | C,4- C,4 | F,,8 | C,8 | %114
w: * 3||||||||6 5|||
 C,3 D, C,4 | C,4 B,,4 | A,,4 G,,4 | C,4 D,2- D,2 | G,,8 | G,6 G,2 | G,3 C B,4 | B,4 _E,2- E,2 | %122
w: |* 6||* 4 3||||* 5 6|
 D,2- D,2 C,4 | F,4 G,2- G,2 | C,4 F,2- F,2 | E,2- E,2 D,4 | G,4 A,2- A,2 | D,4 D,4 | G,4 ^F,4 | %129
w: 5 6 *|* 4 3|* 5 6|5 6 *|* 4 3|||
 G,4 D,4 | G,,2- G,,2 D,4 | B,,2 G,,2 D,2 B,,2 | C,2 D,2 G,,2 G,2 | F,4 B,,4 | F,2 D,2 _E,2 F,2 | %135
w: |5 6 *|* 6 * *|||* 6 6 *|
 B,4 z4 | D6 D2 | D3 G, D4 | D4 B,2- B,2 | A,2- A,2 G,4 | C4 D2- D2 | G,4 B,4 | F,2- F,2 G,2- G,2 | %143
w: |||* 5 6|5 6 *|* 4 3||5 6 5 6|
 _E,4 F,2- F,2 | B,4 G,4 | C,4 =B,,4 | C,2- C,2 G,4 | _E,2 C,2 G,4 | C,2- C,2 G,2 G,2 | %149
w: * 4 3|||5 6 *|6 6 *|5 6 * *|
 _E,2 F,2 B,,4 | F,4 B,3 G, | F,4 _E,2 F,2 | B,,2 C,2 F,2 G,2 | C,2 D,2 G,2 A,2 | %154
w: |||||
 D,2 E,2 A,,2 D,2 | G,,4 D,2 B,,2 | C,2 D,2 G,,3 G, | D,2 D,2 G,4 | D2 B,2 C2 D2 | G,4 z4 || G,8 | %161
w: ||||* 6 6 *|||
 G,4 G,4 | G,8 | G,4 G,4 | G,4 F,2 E,2 | D,8 | D,4 D,4 | D,8 | D,4 D,4 | D,2 E,2 F,2 G,2 | %170
w: |||||||||
 A,2 B,2 G,2 A,2 | D,4 B,,4 | F,3 F, F,2 F,,2 | B,,8 | B,,4 B,,4 | F,3 F, F,2 F,,2 | B,,8 | %177
w: |||||||
 B,,4- B,,2 C,2 | D,4- D,4 | !fermata!G,,8 || G,,8 | G,,4 G,,4 | G,,8 | G,,4 G,,4 | G,,8 | C,8 | %186
w: * 6 *|4 3||||||||
 C,8 | F,,8 | F,,8 | C,8 | C,8 | ^C,4 D,2 G,,2 | A,,8 | D,8 | D,4 D,4 | D,8 | D,4 D,4 | %197
w: |||||||||||
 D,2 D,2 G,3 D, | G,2 G,_E, C,2 D,D, | G,3 D, G,3 F, | B,2 B,G, _E,2 F,F, | B,4 G,4 | A,4 B,4 | %203
w: |||||* 6|
 C4- C4 | D4- D4 | !fermata!G,8 |] %206
w: 6 5|4 3||

